#define geminiLogo_width 131
#define geminiLogo_height 152
static char geminiLogo_bits[] = {
 0x00,0x00,0x00,0x00,0x00,0x00,0x00,0x00,0x00,0x00,0x00,0x00,0x00,0x00,0x00,
 0x00,0xf8,0x00,0x00,0x00,0x00,0x00,0x00,0x00,0x00,0x00,0x00,0x00,0x00,0x00,
 0x00,0x00,0x00,0xf8,0x00,0x00,0x00,0x00,0x00,0x00,0x00,0x00,0x00,0x00,0x00,
 0x00,0x00,0x00,0x00,0x00,0xf8,0x00,0x00,0x00,0x00,0x00,0x00,0x00,0x00,0x00,
 0x00,0x00,0x00,0x00,0x00,0x00,0x00,0xf8,0x00,0x00,0x00,0x00,0x00,0x00,0x00,
 0x00,0x00,0x00,0x00,0x00,0x00,0x00,0x00,0x00,0xf8,0x00,0x00,0x00,0x00,0x00,
 0x00,0x00,0x00,0x00,0x00,0x00,0x00,0x00,0x00,0x00,0x00,0xf8,0x00,0x00,0x00,
 0x00,0x00,0x00,0x00,0x00,0x00,0x00,0x00,0x00,0x00,0x00,0x00,0x00,0xf8,0x00,
 0x00,0x00,0x00,0x00,0x00,0x00,0x00,0x00,0x00,0x00,0x00,0x00,0x00,0x00,0x00,
 0xf8,0x00,0x00,0x00,0x00,0x00,0x00,0x00,0x00,0x00,0x00,0x00,0x00,0x00,0x00,
 0x00,0x00,0xf8,0x00,0x00,0x00,0x00,0x00,0x00,0x00,0x00,0x00,0x00,0x00,0x00,
 0x00,0x00,0x00,0x00,0xf8,0x00,0x00,0x00,0x00,0x00,0x00,0x00,0x00,0x00,0x00,
 0x00,0x00,0x00,0x00,0x00,0x00,0xf8,0x00,0x00,0x00,0x00,0x00,0x00,0x00,0x00,
 0x00,0x00,0x00,0x00,0x00,0x00,0x00,0x00,0xf8,0x00,0x00,0x00,0x00,0x00,0x00,
 0x00,0x00,0x00,0x00,0x00,0x00,0x00,0x00,0x00,0x00,0xf8,0x00,0x00,0x00,0x00,
 0x00,0x00,0x00,0x00,0x00,0x00,0x00,0x00,0x00,0x00,0x00,0x00,0xf8,0x00,0x00,
 0x00,0x00,0x00,0x00,0x00,0x00,0x00,0x00,0x00,0x00,0x00,0x00,0x00,0x00,0xf8,
 0x00,0x00,0x00,0x00,0x00,0x00,0x00,0x00,0x00,0x00,0x00,0x00,0x00,0x00,0x00,
 0x00,0xf8,0x00,0x00,0x00,0x00,0x00,0x00,0x00,0x00,0x00,0x00,0x00,0x00,0x00,
 0x00,0x00,0x00,0xf8,0x00,0x00,0x00,0x00,0x00,0x00,0x00,0x00,0x00,0x00,0x00,
 0x00,0x00,0x00,0x00,0x00,0xf8,0x00,0x00,0x00,0x00,0x00,0x00,0x00,0x00,0x00,
 0x00,0x00,0x00,0x00,0x00,0x00,0x00,0xf8,0x00,0x00,0x00,0xc0,0xff,0xff,0xff,
 0xff,0xff,0xff,0xff,0xff,0x07,0x00,0x00,0x00,0xf8,0x00,0x00,0x00,0x40,0xf0,
 0x00,0x80,0xff,0xff,0x07,0x00,0xf0,0x04,0x00,0x00,0x00,0xf8,0x00,0x00,0x00,
 0x40,0xf0,0x00,0x80,0xff,0xff,0x07,0x00,0xf0,0x04,0x00,0x00,0x00,0xf8,0x00,
 0x00,0x00,0x40,0xf0,0x00,0x80,0xff,0xff,0x07,0x00,0xf0,0x04,0x00,0x00,0x00,
 0xf8,0x00,0x00,0x00,0x40,0xf0,0x00,0x80,0xff,0xff,0x0f,0x00,0xf0,0x04,0x00,
 0x00,0x00,0xf8,0x00,0x00,0x00,0x40,0xf0,0x00,0xc0,0x1f,0xc0,0x0f,0x00,0xf0,
 0x04,0x00,0x00,0x00,0xf8,0x00,0x00,0x00,0x40,0xf0,0x00,0xc0,0x1f,0xc0,0x0f,
 0x00,0xf0,0x04,0x00,0x00,0x00,0xf8,0x00,0x00,0x00,0x40,0xf0,0x00,0xc0,0x1f,
 0xc0,0x0f,0x00,0xf0,0x04,0x00,0x00,0x00,0xf8,0x00,0x00,0x00,0x40,0xf0,0x00,
 0xc0,0x1f,0xe0,0x1f,0x00,0xf0,0x04,0x00,0x00,0x00,0xf8,0x00,0x00,0x00,0x40,
 0xf0,0x00,0xe0,0x3f,0xe0,0x1f,0x00,0xf0,0x04,0x00,0x00,0x00,0xf8,0x00,0x00,
 0x00,0x40,0xf0,0x00,0xe0,0x3f,0xe0,0x1f,0x00,0xf0,0x04,0x00,0x00,0x00,0xf8,
 0x00,0x00,0x00,0x40,0xf0,0x00,0xe0,0x3f,0xe0,0x1f,0x00,0xf0,0x04,0x00,0x00,
 0x00,0xf8,0x00,0x00,0x00,0x40,0x70,0x00,0xe0,0x3f,0xe0,0x3f,0x00,0xf0,0x04,
 0x00,0x00,0x00,0xf8,0x00,0x00,0x00,0x40,0x70,0x00,0xf0,0x3f,0xe0,0x3f,0x00,
 0xf0,0x04,0x00,0x00,0x00,0xf8,0x00,0x00,0x00,0x40,0x70,0x00,0xf0,0x3f,0xe0,
 0x3f,0x00,0xf0,0x04,0x00,0x00,0x00,0xf8,0x00,0x00,0x00,0x40,0x70,0x00,0xf0,
 0x3e,0xe0,0x3f,0x00,0xf0,0x04,0x00,0x00,0x00,0xf8,0x00,0x00,0x00,0x40,0x70,
 0x00,0xf0,0x3e,0xe0,0x7b,0x00,0xf0,0x04,0x00,0x00,0x00,0xf8,0x00,0x00,0x00,
 0x40,0x70,0x00,0xf0,0x3e,0xe0,0x7b,0x00,0xf0,0x04,0x00,0x00,0x00,0xf8,0x00,
 0x00,0x00,0x40,0x70,0x00,0x78,0x3c,0xe0,0x7b,0x00,0xe0,0x04,0x00,0x00,0x00,
 0xf8,0x00,0x00,0x00,0x40,0x70,0x00,0x78,0x3c,0xe0,0x7b,0x00,0xe0,0x04,0x00,
 0x00,0x00,0xf8,0x00,0x00,0x00,0x40,0x70,0x00,0x78,0x3c,0xe0,0x73,0x00,0xe0,
 0x04,0x00,0x00,0x00,0xf8,0x00,0x00,0x00,0x40,0x70,0x00,0x38,0x3c,0xe0,0xf1,
 0x00,0xe0,0x04,0x00,0x00,0x00,0xf8,0x00,0x00,0x00,0x40,0x70,0x00,0x3c,0x3c,
 0xe0,0xf1,0x00,0xe0,0x04,0x00,0x00,0x00,0xf8,0x00,0x00,0x00,0x40,0x70,0x00,
 0x3c,0x3c,0xe0,0xe1,0x00,0xe0,0x04,0x00,0x00,0x00,0xf8,0x00,0x00,0x00,0x40,
 0x70,0x00,0x3c,0x3c,0xe0,0xe1,0x00,0xe0,0x04,0x00,0x00,0x00,0xf8,0x00,0x00,
 0x00,0x40,0x70,0x00,0x3c,0x3c,0xe0,0xe1,0x01,0xe0,0x04,0x00,0x00,0x00,0xf8,
 0x00,0x00,0x00,0x40,0x70,0x00,0x1c,0x3c,0xf0,0xc1,0x01,0xe0,0x04,0x00,0x00,
 0x00,0xf8,0x00,0x00,0x00,0x40,0x70,0x00,0x1e,0x3c,0xf0,0xc1,0x01,0xe0,0x04,
 0x00,0x00,0x00,0xf8,0x00,0x00,0x00,0x40,0x70,0x00,0x0e,0x38,0xf0,0xc1,0x03,
 0xe0,0x04,0x00,0x00,0x00,0xf8,0x00,0x00,0x00,0x40,0x70,0x00,0x0e,0x38,0xf0,
 0xc1,0x03,0xe0,0x04,0x00,0x00,0x00,0xf8,0x00,0x00,0x00,0x40,0x70,0x00,0x0e,
 0x38,0xf0,0x81,0x03,0xe0,0x04,0x00,0x00,0x00,0xf8,0x00,0x00,0x00,0x40,0x70,
 0x00,0x0e,0x38,0xf0,0x81,0x03,0xe0,0x04,0x00,0x00,0x00,0xf8,0x00,0x00,0x00,
 0x40,0x70,0x00,0x0f,0x38,0xf0,0x81,0x03,0xe0,0x04,0x00,0x00,0x00,0xf8,0x00,
 0x00,0x00,0x40,0x70,0x00,0x07,0x38,0xf0,0x80,0x07,0xe0,0x04,0x00,0x00,0x00,
 0xf8,0x00,0x00,0x00,0x40,0x30,0x00,0x07,0x38,0xf0,0x00,0x07,0xe0,0x04,0x00,
 0x00,0x00,0xf8,0x00,0x00,0x00,0x40,0x30,0x00,0x07,0x78,0xf0,0x00,0x07,0xe0,
 0x04,0x00,0x00,0x00,0xf8,0x00,0x00,0x00,0x40,0x30,0x80,0x07,0x78,0xf0,0x00,
 0x07,0xe0,0x04,0x00,0x00,0x00,0xf8,0x00,0x00,0x00,0x40,0x30,0x80,0x03,0x78,
 0xf0,0x00,0x0e,0xe0,0x04,0x00,0x00,0x00,0xf8,0x00,0x00,0x00,0x40,0x30,0x80,
 0x03,0x78,0x70,0x00,0x0e,0xe0,0x04,0x00,0x00,0x00,0xf8,0x00,0x00,0x00,0x40,
 0x30,0x80,0x03,0x78,0x70,0x00,0x0e,0xe0,0x04,0x00,0x00,0x00,0xf8,0x00,0x00,
 0x00,0x40,0x30,0xc0,0x01,0x78,0x70,0x00,0x0e,0xe0,0x04,0x00,0x00,0x00,0xf8,
 0x00,0x00,0x00,0x40,0x30,0xc0,0x01,0x70,0x70,0x00,0x1c,0xe0,0x04,0x00,0x00,
 0x00,0xf8,0x00,0x00,0x00,0x40,0x30,0xc0,0x01,0x70,0x70,0x00,0x1c,0xe0,0x04,
 0x00,0x00,0x00,0xf8,0x00,0x00,0x00,0x40,0x30,0xc0,0x01,0x70,0x70,0x00,0x1c,
 0xe0,0x04,0x00,0x00,0x00,0xf8,0x00,0x00,0x00,0x40,0x30,0xe0,0x00,0x70,0x70,
 0x00,0x18,0xe0,0x04,0x00,0x00,0x00,0xf8,0x00,0x00,0x00,0x40,0x30,0xe0,0x00,
 0x70,0x70,0x00,0x18,0xe0,0x04,0x00,0x00,0x00,0xf8,0x00,0x00,0x00,0x40,0x30,
 0xe0,0x00,0x70,0x70,0x00,0x38,0xe0,0x04,0x00,0x00,0x00,0xf8,0x00,0x00,0x00,
 0x40,0x30,0xe0,0x00,0x70,0x78,0x00,0x38,0xe0,0x04,0x00,0x00,0x00,0xf8,0x00,
 0x00,0x00,0x40,0x30,0xe0,0x00,0x70,0x78,0x00,0x30,0xe0,0x04,0x00,0x00,0x00,
 0xf8,0x00,0x00,0x00,0x40,0x30,0x70,0x00,0x70,0x78,0x00,0x30,0xe0,0x04,0x00,
 0x00,0x00,0xf8,0x00,0x00,0x00,0x40,0x30,0x70,0x00,0x60,0x78,0x00,0x70,0xe0,
 0x04,0x00,0x00,0x00,0xf8,0x00,0x00,0x00,0x40,0x30,0x70,0x00,0x60,0x38,0x00,
 0x60,0xe0,0x04,0x00,0x00,0x00,0xf8,0x00,0x00,0x00,0x40,0x30,0x30,0x00,0xe0,
 0x38,0x00,0xe0,0xe0,0x04,0x00,0x00,0x00,0xf8,0x00,0x00,0x00,0x40,0x30,0x30,
 0x00,0xe0,0x38,0x00,0xe0,0xe0,0x04,0x00,0x00,0x00,0xf8,0x00,0x00,0x00,0x40,
 0x30,0x38,0x00,0xe0,0x38,0x00,0xe0,0xe0,0x04,0x00,0x00,0x00,0xf8,0x00,0x00,
 0x00,0x40,0x10,0x18,0x00,0xe0,0x38,0x00,0xc0,0xe0,0x04,0x00,0x00,0x00,0xf8,
 0x00,0x00,0x00,0x40,0x10,0x18,0x00,0xe0,0x38,0x00,0xc0,0xe1,0x04,0x00,0x00,
 0x00,0xf8,0x00,0x00,0x00,0x40,0x10,0x18,0x00,0xe0,0x38,0x00,0xc0,0xe1,0x04,
 0x00,0x00,0x00,0xf8,0x00,0x00,0x00,0x40,0x10,0x1c,0x00,0xe0,0x38,0x00,0x80,
 0xc1,0x04,0x00,0x00,0x00,0xf8,0x00,0x00,0x00,0x40,0x10,0x1c,0x00,0xe0,0x38,
 0x00,0x80,0xc1,0x04,0x00,0x00,0x00,0xf8,0x00,0x00,0x00,0x40,0x10,0x0c,0x00,
 0xe0,0x38,0x00,0x80,0xc3,0x04,0x00,0x00,0x00,0xf8,0x00,0x00,0x00,0x40,0x10,
 0x0e,0x00,0xc0,0x38,0x00,0x00,0xc3,0x04,0x00,0x00,0x00,0xf8,0x00,0x00,0x00,
 0x40,0x10,0x0e,0x00,0xc0,0x18,0x00,0x00,0xc3,0x04,0x00,0x00,0x00,0xf8,0x00,
 0x00,0x00,0x40,0x10,0x06,0x00,0xc0,0x18,0x00,0x00,0xc3,0x04,0x00,0x00,0x00,
 0xf8,0x00,0x00,0x00,0x40,0x10,0x07,0x00,0xc0,0x18,0x00,0x00,0xc6,0x04,0x00,
 0x00,0x00,0xf8,0x00,0x00,0x00,0x40,0x10,0x07,0x00,0xc0,0x18,0x00,0x00,0xc6,
 0x04,0x00,0x00,0x00,0xf8,0x00,0x00,0x00,0x40,0x10,0x07,0x00,0xc0,0x19,0x00,
 0x00,0xc6,0x04,0x00,0x00,0x00,0xf8,0x00,0x00,0x00,0x40,0x10,0x03,0x00,0xc0,
 0x1d,0x00,0x00,0xc4,0x04,0x00,0x00,0x00,0xf8,0x00,0x00,0x00,0x40,0x10,0x03,
 0x00,0xc0,0x1d,0x00,0x00,0xcc,0x04,0x00,0x00,0x00,0xf8,0x00,0x00,0x00,0x40,
 0x90,0x01,0x00,0xc0,0x1d,0x00,0x00,0xcc,0x04,0x00,0x00,0x00,0xf8,0x00,0x00,
 0x00,0x40,0x90,0x01,0x00,0xc0,0x1d,0x00,0x00,0xcc,0x04,0x00,0x00,0x00,0xf8,
 0x00,0x00,0x00,0x40,0x90,0x01,0x00,0xc0,0x1d,0x00,0x00,0xcc,0x04,0x00,0x00,
 0x00,0xf8,0x00,0x00,0x00,0x40,0x90,0x00,0x00,0xc0,0x1d,0x00,0x00,0xd8,0x04,
 0x00,0x00,0x00,0xf8,0x00,0x00,0x00,0x40,0xd0,0x00,0x00,0x80,0x1d,0x00,0x00,
 0xd8,0x04,0x00,0x00,0x00,0xf8,0x00,0x00,0x00,0x40,0xd0,0x00,0x00,0x80,0x0d,
 0x00,0x00,0xd8,0x04,0x00,0x00,0x00,0xf8,0x00,0x00,0x00,0x40,0xd0,0x00,0x00,
 0x80,0x0d,0x00,0x00,0xd0,0x04,0x00,0x00,0x00,0xf8,0x00,0x00,0x00,0x40,0xd0,
 0x00,0x00,0x80,0x0d,0x00,0x00,0xd0,0x04,0x00,0x00,0x00,0xf8,0x00,0x00,0x00,
 0x40,0x70,0x00,0x00,0x80,0x0d,0x00,0x00,0xf0,0x04,0x00,0x00,0x00,0xf8,0x00,
 0x00,0x00,0x40,0x70,0x00,0x00,0x80,0x0d,0x00,0x00,0xe0,0x04,0x00,0x00,0x00,
 0xf8,0x00,0x00,0x00,0x40,0x70,0x00,0x00,0x80,0x0d,0x00,0x00,0xa0,0x04,0x00,
 0x00,0x00,0xf8,0x00,0x00,0x00,0x40,0x30,0x00,0x00,0x80,0x0d,0x00,0x00,0xa0,
 0x04,0x00,0x00,0x00,0xf8,0x00,0x00,0x00,0x40,0x30,0x00,0x00,0x80,0x0d,0x00,
 0x00,0xe0,0x04,0x00,0x00,0x00,0xf8,0x00,0x00,0x00,0x40,0x30,0x00,0x00,0x00,
 0x0d,0x00,0x00,0xe0,0x04,0x00,0x00,0x00,0xf8,0x00,0x00,0x00,0x40,0x30,0x00,
 0x00,0x00,0x0d,0x00,0x00,0xc0,0x04,0x00,0x00,0x00,0xf8,0x00,0x00,0x00,0x40,
 0x10,0x00,0x00,0x00,0x0d,0x00,0x00,0xc0,0x04,0x00,0x00,0x00,0xf8,0x00,0x00,
 0x00,0x40,0x10,0x00,0x00,0x00,0x0d,0x00,0x00,0xc0,0x04,0x00,0x00,0x00,0xf8,
 0x00,0x00,0x00,0x40,0xf0,0x00,0x00,0x00,0x0f,0x00,0x00,0xf0,0x04,0x00,0x00,
 0x00,0xf8,0x00,0x00,0x00,0x40,0xe0,0x7f,0x00,0x00,0x07,0x00,0xc0,0x1f,0x04,
 0x00,0x00,0x00,0xf8,0x00,0x00,0x00,0x40,0x00,0xfc,0xff,0x01,0x07,0xe0,0xff,
 0x03,0x04,0x00,0x00,0x00,0xf8,0x00,0x00,0x00,0x40,0x00,0x00,0x00,0xff,0xff,
 0x1f,0x00,0x00,0x04,0x00,0x00,0x00,0xf8,0x00,0x00,0x00,0x40,0x00,0x00,0x00,
 0x00,0x07,0x00,0x00,0x00,0x04,0x00,0x00,0x00,0xf8,0x00,0x00,0x00,0x40,0x00,
 0x00,0x00,0x00,0x07,0x00,0x00,0x00,0x04,0x00,0x00,0x00,0xf8,0x00,0x00,0x00,
 0x40,0x00,0x00,0x00,0x00,0x07,0x00,0x00,0x00,0x04,0x00,0x00,0x00,0xf8,0x00,
 0x00,0x00,0xc0,0xff,0xff,0xff,0xff,0xff,0xff,0xff,0xff,0x07,0x00,0x00,0x00,
 0xf8,0x00,0x00,0x00,0x00,0x00,0x00,0x00,0x00,0x06,0x00,0x00,0x00,0x00,0x00,
 0x00,0x00,0xf8,0x00,0x00,0x00,0x00,0x00,0x00,0x00,0x00,0x06,0x00,0x00,0x00,
 0x00,0x00,0x00,0x00,0xf8,0x00,0x00,0x00,0x00,0x00,0x00,0x00,0x00,0x06,0x00,
 0x00,0x00,0x00,0x00,0x00,0x00,0xf8,0x00,0x00,0x00,0x00,0x00,0x00,0x00,0x00,
 0x06,0x00,0x00,0x00,0x00,0x00,0x00,0x00,0xf8,0x00,0x00,0x00,0x00,0x00,0x00,
 0x00,0x00,0x02,0x00,0x00,0x00,0x00,0x00,0x00,0x00,0xf8,0x00,0x00,0x00,0x00,
 0x00,0x00,0x00,0x00,0x02,0x00,0x00,0x00,0x00,0x00,0x00,0x00,0xf8,0x00,0x00,
 0x00,0x00,0xfc,0xc1,0xff,0x38,0xe2,0x18,0x03,0xc4,0x00,0x00,0x00,0x00,0xf8,
 0x00,0x00,0x00,0x00,0x8e,0xc3,0x00,0x38,0xe0,0x18,0x07,0xc4,0x00,0x00,0x00,
 0x00,0xf8,0x00,0x00,0x00,0x00,0x03,0xc6,0x00,0x38,0xe0,0x18,0x07,0xc4,0x00,
 0x00,0x00,0x00,0xf8,0x00,0x00,0x00,0x00,0x01,0xce,0x00,0x78,0xf0,0x18,0x0f,
 0xc4,0x00,0x00,0x00,0x00,0xf8,0x00,0x00,0x00,0x80,0x01,0xc4,0x00,0x78,0xf0,
 0x18,0x0b,0xc4,0x00,0x00,0x00,0x00,0xf8,0x00,0x00,0x00,0x80,0x00,0xc0,0x00,
 0x58,0xd0,0x18,0x1b,0xc4,0x00,0x00,0x00,0x00,0xf8,0x00,0x00,0x00,0x80,0x00,
 0xc0,0x00,0x58,0xd0,0x18,0x13,0xc4,0x00,0x00,0x00,0x00,0xf8,0x00,0x00,0x00,
 0x80,0x00,0xc0,0xff,0xd8,0xd8,0x18,0x33,0xc4,0x00,0x00,0x00,0x00,0xf8,0x00,
 0x00,0x00,0x80,0xc0,0xcf,0xff,0xd8,0xd8,0x18,0x23,0xc4,0x00,0x00,0x00,0x00,
 0xf8,0x00,0x00,0x00,0x80,0xc0,0xcf,0x00,0x98,0xc8,0x18,0x63,0xc4,0x00,0x00,
 0x00,0x00,0xf8,0x00,0x00,0x00,0x80,0x00,0xcc,0x00,0x98,0xcd,0x18,0xc3,0xc4,
 0x00,0x00,0x00,0x00,0xf8,0x00,0x00,0x00,0x80,0x01,0xcc,0x00,0x98,0xcd,0x18,
 0xc3,0xc5,0x00,0x00,0x00,0x00,0xf8,0x00,0x00,0x00,0x00,0x01,0xcc,0x00,0x18,
 0xc5,0x18,0x03,0xc5,0x00,0x00,0x00,0x00,0xf8,0x00,0x00,0x00,0x00,0x03,0xce,
 0x00,0x18,0xc5,0x18,0x03,0xc7,0x00,0x00,0x00,0x00,0xf8,0x00,0x00,0x00,0x00,
 0x8e,0xc7,0x00,0x18,0xc7,0x18,0x03,0xc6,0x00,0x00,0x00,0x00,0xf8,0x00,0x00,
 0x00,0x00,0xfc,0xc1,0xff,0x18,0xc7,0x18,0x03,0xc6,0x00,0x00,0x00,0x00,0xf8,
 0x00,0x00,0x00,0x00,0x00,0x00,0x00,0x00,0x00,0x00,0x00,0x00,0x00,0x00,0x00,
 0x00,0xf8,0x00,0x00,0x00,0x00,0x00,0x00,0x00,0x00,0x00,0x00,0x00,0x00,0x00,
 0x00,0x00,0x00,0xf8,0x00,0x00,0x00,0x00,0x00,0x00,0x00,0x00,0x00,0x00,0x00,
 0x00,0x00,0x00,0x00,0x00,0xf8,0x00,0x00,0x00,0x00,0x00,0x00,0x00,0x00,0x00,
 0x00,0x00,0x00,0x00,0x00,0x00,0x00,0xf8,0x00,0x00,0x00,0x00,0x00,0x00,0x00,
 0x00,0x00,0x00,0x00,0x00,0x00,0x00,0x00,0x00,0xf8,0x00,0x00,0x00,0x00,0x00,
 0x00,0x00,0x00,0x00,0x00,0x00,0x00,0x00,0x00,0x00,0x00,0xf8,0x00,0x00,0x00,
 0x00,0x00,0x00,0x00,0x00,0x00,0x00,0x00,0x00,0x00,0x00,0x00,0x00,0xf8,0x00,
 0x00,0x00,0x00,0x00,0x00,0x00,0x00,0x00,0x00,0x00,0x00,0x00,0x00,0x00,0x00,
 0xf8,0x00,0x00,0x00,0x00,0x00,0x00,0x00,0x00,0x00,0x00,0x00,0x00,0x00,0x00,
 0x00,0x00,0xf8,0x00,0x00,0x00,0x00,0x00,0x00,0x00,0x00,0x00,0x00,0x00,0x00,
 0x00,0x00,0x00,0x00,0xf8,0x00,0x00,0x00,0x00,0x00,0x00,0x00,0x00,0x00,0x00,
 0x00,0x00,0x00,0x00,0x00,0x00,0xf8,0x00,0x00,0x00,0x00,0x00,0x00,0x00,0x00,
 0x00,0x00,0x00,0x00,0x00,0x00,0x00,0x00,0xf8,0x00,0x00,0x00,0x00,0x00,0x00,
 0x00,0x00,0x00,0x00,0x00,0x00,0x00,0x00,0x00,0x00,0xf8,0x00,0x00,0x00,0x00,
 0x00,0x00,0x00,0x00,0x00,0x00,0x00,0x00,0x00,0x00,0x00,0x00,0xf8,0x00,0x00,
 0x00,0x00,0x00,0x00,0x00,0x00,0x00,0x00,0x00,0x00,0x00,0x00,0x00,0x00,0xf8,
 0x00,0x00,0x00,0x00,0x00,0x00,0x00,0x00,0x00,0x00,0x00,0x00,0x00,0x00,0x00,
 0x00,0xf8,0x00,0x00,0x00,0x00,0x00,0x00,0x00,0x00,0x00,0x00,0x00,0x00,0x00,
 0x00,0x00,0x00,0xf8};
