#define dhsGemini_width 234
#define dhsGemini_height 148
static char dhsGemini_bits[] = {
   0x00, 0x00, 0x00, 0x00, 0x00, 0x00, 0x00, 0x00, 0x00, 0x00, 0x00, 0x00,
   0x00, 0x00, 0x00, 0x00, 0x00, 0x00, 0x00, 0x00, 0x00, 0x00, 0x00, 0x00,
   0x00, 0x00, 0x00, 0x00, 0x00, 0xfc, 0x00, 0x00, 0x00, 0x00, 0x00, 0x00,
   0x00, 0x00, 0x00, 0x00, 0x00, 0x00, 0x00, 0x00, 0x00, 0x00, 0x00, 0x00,
   0x00, 0x00, 0x00, 0x00, 0x00, 0x00, 0x00, 0x00, 0x00, 0x00, 0x00, 0xfc,
   0x00, 0x00, 0x00, 0x00, 0x00, 0x00, 0x00, 0x00, 0x00, 0x00, 0x00, 0x00,
   0x00, 0x00, 0x00, 0x00, 0x00, 0x00, 0x00, 0x00, 0x00, 0x00, 0x00, 0x00,
   0x00, 0x00, 0x00, 0x00, 0x00, 0xfc, 0x00, 0x00, 0x00, 0x00, 0x00, 0x00,
   0x00, 0x00, 0x00, 0x00, 0x00, 0x00, 0x00, 0x00, 0x00, 0x00, 0x00, 0x00,
   0x00, 0x00, 0x00, 0x00, 0x00, 0x00, 0x00, 0x00, 0x00, 0x00, 0x00, 0xfc,
   0x00, 0x00, 0x00, 0x00, 0x00, 0x00, 0x00, 0x00, 0x00, 0x00, 0x00, 0x00,
   0x00, 0x00, 0x00, 0x00, 0x00, 0x00, 0x00, 0x00, 0x00, 0x00, 0x00, 0x00,
   0x00, 0x00, 0x00, 0x00, 0x00, 0xfc, 0x00, 0x00, 0x00, 0x00, 0x00, 0x00,
   0x00, 0x00, 0x00, 0x00, 0x00, 0x00, 0x00, 0x00, 0x00, 0x00, 0x00, 0x00,
   0x00, 0x00, 0x00, 0x00, 0x00, 0x00, 0x00, 0x00, 0x00, 0x00, 0x00, 0xfc,
   0x00, 0x00, 0x00, 0x00, 0x00, 0x00, 0x00, 0x00, 0x00, 0x00, 0x00, 0x00,
   0x00, 0x00, 0x00, 0x00, 0x00, 0x00, 0x00, 0x00, 0x00, 0x00, 0x00, 0x00,
   0x00, 0x00, 0x00, 0x00, 0x00, 0xfc, 0x00, 0x00, 0x00, 0x00, 0x00, 0x00,
   0x00, 0x00, 0x00, 0x00, 0x00, 0x00, 0x00, 0x00, 0x00, 0x00, 0x00, 0x00,
   0x00, 0x00, 0x00, 0x00, 0x00, 0x00, 0x00, 0x00, 0x00, 0x00, 0x00, 0xfc,
   0x00, 0x00, 0x00, 0x00, 0x00, 0x00, 0x00, 0x00, 0x00, 0x00, 0x00, 0x00,
   0x00, 0x00, 0x00, 0x00, 0x00, 0x00, 0x00, 0x00, 0x00, 0x00, 0x00, 0x00,
   0x00, 0x00, 0x00, 0x00, 0x00, 0xfc, 0x00, 0x00, 0x00, 0x00, 0x00, 0x00,
   0x00, 0x00, 0x00, 0x00, 0x00, 0x00, 0x00, 0x00, 0x00, 0x00, 0x00, 0x00,
   0x00, 0x00, 0x00, 0x00, 0x00, 0x00, 0x00, 0x00, 0x00, 0x00, 0x00, 0xfc,
   0x00, 0x00, 0x00, 0x00, 0x00, 0x00, 0x00, 0x00, 0x00, 0x00, 0x00, 0x00,
   0x00, 0x00, 0x00, 0x00, 0x00, 0x00, 0x00, 0x00, 0x00, 0x00, 0x00, 0x00,
   0x00, 0x00, 0x00, 0x00, 0x00, 0xfc, 0x00, 0x00, 0x00, 0x00, 0x00, 0x00,
   0x00, 0x00, 0x00, 0x00, 0x00, 0x00, 0x00, 0x00, 0x00, 0x00, 0x00, 0x00,
   0x00, 0x00, 0x00, 0x00, 0x00, 0x00, 0x00, 0x00, 0x00, 0x00, 0x00, 0xfc,
   0x00, 0x00, 0x00, 0x00, 0x00, 0x00, 0x00, 0x00, 0x00, 0x00, 0x00, 0x00,
   0x00, 0x00, 0x00, 0x00, 0x00, 0x00, 0x00, 0x00, 0x00, 0x00, 0x00, 0x00,
   0x00, 0x00, 0x00, 0x00, 0x00, 0xfc, 0x00, 0x00, 0x00, 0x00, 0x00, 0x00,
   0x00, 0x00, 0x00, 0x00, 0x00, 0x00, 0x00, 0x00, 0x00, 0x00, 0x00, 0x00,
   0x00, 0x00, 0x00, 0x00, 0x00, 0x00, 0x00, 0x00, 0x00, 0x00, 0x00, 0xfc,
   0x00, 0x00, 0x00, 0x00, 0x00, 0x00, 0x00, 0x00, 0x00, 0x00, 0x00, 0x00,
   0x00, 0x00, 0x00, 0x00, 0x00, 0x00, 0x00, 0x00, 0x00, 0x00, 0x00, 0x00,
   0x00, 0x00, 0x00, 0x00, 0x00, 0xfc, 0x00, 0x00, 0x00, 0x00, 0x00, 0x00,
   0x00, 0x00, 0x00, 0x00, 0x00, 0x00, 0x00, 0x00, 0x00, 0x00, 0x00, 0x00,
   0x00, 0x00, 0x00, 0x00, 0x00, 0x00, 0x00, 0x00, 0x00, 0x00, 0x00, 0xfc,
   0x00, 0x00, 0x00, 0x00, 0x00, 0x00, 0x00, 0x00, 0x00, 0x00, 0x00, 0x00,
   0x00, 0x00, 0x00, 0x00, 0x00, 0x00, 0x00, 0x00, 0x00, 0x00, 0x00, 0x00,
   0x00, 0x00, 0x00, 0x00, 0x00, 0xfc, 0x00, 0x00, 0xfe, 0xff, 0xff, 0xff,
   0xff, 0xff, 0xff, 0xff, 0x3f, 0x00, 0x00, 0x00, 0x00, 0x00, 0x00, 0x00,
   0x00, 0x00, 0x00, 0x00, 0x00, 0x00, 0x00, 0x00, 0x00, 0x00, 0x00, 0xfc,
   0x00, 0x00, 0x82, 0x07, 0x00, 0xfc, 0xff, 0x3f, 0x00, 0x80, 0x27, 0x00,
   0x00, 0x00, 0x00, 0x00, 0x00, 0x00, 0x00, 0x00, 0x00, 0x00, 0x00, 0x00,
   0x00, 0x00, 0x00, 0x00, 0x00, 0xfc, 0x00, 0x00, 0x82, 0x07, 0x00, 0xfc,
   0xff, 0x3f, 0x00, 0x80, 0x27, 0x00, 0x00, 0x00, 0x00, 0x00, 0x00, 0x00,
   0x00, 0x00, 0x00, 0x00, 0x00, 0x00, 0x00, 0x00, 0x00, 0x00, 0x00, 0xfc,
   0x00, 0x00, 0x82, 0x07, 0x00, 0xfc, 0xff, 0x3f, 0x00, 0x80, 0x27, 0x00,
   0x00, 0x00, 0x00, 0x00, 0x00, 0x00, 0x00, 0x00, 0x00, 0x00, 0x00, 0x00,
   0x00, 0x00, 0x00, 0x00, 0x00, 0xfc, 0x00, 0x00, 0x82, 0x07, 0x00, 0xfc,
   0xff, 0x7f, 0x00, 0x80, 0x27, 0x00, 0x00, 0x00, 0x00, 0x00, 0x00, 0x00,
   0x00, 0x00, 0x00, 0x00, 0x00, 0x00, 0x00, 0x00, 0x00, 0x00, 0x00, 0xfc,
   0x00, 0x00, 0x82, 0x07, 0x00, 0xfe, 0x00, 0x7e, 0x00, 0x80, 0x27, 0x00,
   0x00, 0x00, 0x00, 0x00, 0x00, 0x00, 0x00, 0x00, 0x00, 0x00, 0x00, 0x00,
   0x00, 0x00, 0x00, 0x00, 0x00, 0xfc, 0x00, 0x00, 0x82, 0x07, 0x00, 0xfe,
   0x00, 0x7e, 0x00, 0x80, 0x27, 0x00, 0x00, 0x00, 0x00, 0x00, 0x00, 0x00,
   0x00, 0x00, 0x00, 0x00, 0x00, 0x00, 0x00, 0x00, 0x00, 0x00, 0x00, 0xfc,
   0x00, 0x00, 0x82, 0x07, 0x00, 0xfe, 0x00, 0x7e, 0x00, 0x80, 0x27, 0x00,
   0x00, 0x00, 0x00, 0x00, 0x00, 0x00, 0x00, 0x00, 0x00, 0x00, 0x00, 0x00,
   0x00, 0x00, 0x00, 0x00, 0x00, 0xfc, 0x00, 0x00, 0x82, 0x07, 0x00, 0xfe,
   0x00, 0xff, 0x00, 0x80, 0x27, 0x00, 0x00, 0x00, 0x00, 0x00, 0x00, 0x00,
   0x00, 0x00, 0x00, 0x00, 0x00, 0x00, 0x00, 0x00, 0x00, 0x00, 0x00, 0xfc,
   0x00, 0x00, 0x82, 0x07, 0x00, 0xff, 0x01, 0xff, 0x00, 0x80, 0x27, 0x00,
   0x00, 0x00, 0x00, 0x00, 0x00, 0x00, 0x00, 0x00, 0x00, 0x00, 0x00, 0x00,
   0x00, 0x00, 0x00, 0x00, 0x00, 0xfc, 0x00, 0x00, 0x82, 0x07, 0x00, 0xff,
   0x01, 0xff, 0x00, 0x80, 0x27, 0x00, 0x00, 0x00, 0x00, 0x00, 0x00, 0x00,
   0x00, 0x00, 0x00, 0x00, 0x00, 0x00, 0x00, 0x00, 0x00, 0x00, 0x00, 0xfc,
   0x00, 0x00, 0x82, 0x07, 0x00, 0xff, 0x01, 0xff, 0x00, 0x80, 0x27, 0x00,
   0x00, 0x00, 0x00, 0x00, 0x00, 0x00, 0x00, 0x00, 0x00, 0x00, 0x00, 0x00,
   0x00, 0x00, 0x00, 0x00, 0x00, 0xfc, 0x00, 0x00, 0x82, 0x03, 0x00, 0xff,
   0x01, 0xff, 0x00, 0x80, 0x27, 0x00, 0x00, 0x00, 0x00, 0x00, 0x00, 0x00,
   0x00, 0x00, 0x00, 0x00, 0x00, 0x00, 0x00, 0x00, 0x00, 0x00, 0x00, 0xfc,
   0x00, 0x00, 0x82, 0x03, 0x80, 0xff, 0x01, 0xff, 0x00, 0x80, 0x27, 0x00,
   0x00, 0x00, 0x00, 0x00, 0x00, 0x00, 0x00, 0x00, 0x00, 0x00, 0x00, 0x00,
   0x00, 0x00, 0x00, 0x00, 0x00, 0xfc, 0x00, 0x00, 0x82, 0x03, 0x80, 0xff,
   0x01, 0xff, 0x00, 0x00, 0x27, 0x00, 0x00, 0x00, 0x00, 0x00, 0x00, 0x00,
   0x00, 0x00, 0x00, 0x00, 0x00, 0x00, 0x00, 0x00, 0x00, 0x00, 0x00, 0xfc,
   0x00, 0x00, 0x82, 0x03, 0x80, 0xf7, 0x01, 0xff, 0x00, 0x00, 0x27, 0x00,
   0x00, 0x00, 0x00, 0x00, 0x00, 0x00, 0x00, 0x00, 0x00, 0x00, 0x00, 0x00,
   0x00, 0x00, 0x00, 0x00, 0x00, 0xfc, 0x00, 0x00, 0x82, 0x03, 0x80, 0xf7,
   0x01, 0xdf, 0x03, 0x00, 0x27, 0x00, 0x00, 0x00, 0x00, 0x00, 0x00, 0x00,
   0x00, 0x00, 0x00, 0x00, 0x00, 0x00, 0x00, 0x00, 0x00, 0x00, 0x00, 0xfc,
   0x00, 0x00, 0x82, 0x03, 0x80, 0xf7, 0x01, 0xdf, 0x03, 0x00, 0x27, 0x00,
   0x00, 0x00, 0x00, 0x00, 0x00, 0x00, 0x00, 0x00, 0x00, 0x00, 0x00, 0x00,
   0x00, 0x00, 0x00, 0x00, 0x00, 0xfc, 0x00, 0x00, 0x82, 0x03, 0xc0, 0xe3,
   0x01, 0xdf, 0x03, 0x00, 0x27, 0x00, 0x00, 0x00, 0x00, 0x00, 0x00, 0x00,
   0x00, 0x00, 0x00, 0x00, 0x00, 0x00, 0x00, 0x00, 0x00, 0x00, 0x00, 0xfc,
   0x00, 0x00, 0x82, 0x03, 0xc0, 0xe3, 0x01, 0xdf, 0x03, 0x00, 0x27, 0x00,
   0x00, 0x00, 0x00, 0x00, 0x00, 0x00, 0x00, 0x00, 0x00, 0x00, 0x00, 0x00,
   0x00, 0x00, 0x00, 0x00, 0x00, 0xfc, 0x00, 0x00, 0x82, 0x03, 0xc0, 0xe3,
   0x01, 0x9f, 0x03, 0x00, 0x27, 0x00, 0x00, 0x00, 0x00, 0x00, 0x00, 0x00,
   0x00, 0x00, 0x00, 0x00, 0x00, 0x00, 0x00, 0x00, 0x00, 0x00, 0x00, 0xfc,
   0x00, 0x00, 0x82, 0x03, 0xc0, 0xe1, 0x01, 0x8f, 0x07, 0x00, 0x27, 0x00,
   0x00, 0x00, 0x00, 0x00, 0x00, 0x00, 0x00, 0x00, 0x00, 0x00, 0x00, 0x00,
   0x00, 0x00, 0x00, 0x00, 0x00, 0xfc, 0x00, 0x00, 0x82, 0x03, 0xe0, 0xe1,
   0x01, 0x8f, 0x07, 0x00, 0x27, 0x00, 0x00, 0x00, 0x00, 0x00, 0x00, 0x00,
   0x00, 0x00, 0x00, 0x00, 0x00, 0x00, 0x00, 0x00, 0x00, 0x00, 0x00, 0xfc,
   0x00, 0x00, 0x82, 0x03, 0xe0, 0xe1, 0x01, 0x0f, 0x07, 0x00, 0x27, 0x00,
   0x00, 0x00, 0x00, 0x00, 0x00, 0x00, 0x00, 0x00, 0x00, 0x00, 0x00, 0x00,
   0x00, 0x00, 0x00, 0x00, 0x00, 0xfc, 0x00, 0x00, 0x82, 0x03, 0xe0, 0xe1,
   0x01, 0x0f, 0x07, 0x00, 0x27, 0x00, 0x00, 0x00, 0x00, 0x00, 0x00, 0x00,
   0x00, 0x00, 0x00, 0x00, 0x00, 0x00, 0x00, 0x00, 0x00, 0x00, 0x00, 0xfc,
   0x00, 0x00, 0x82, 0x03, 0xe0, 0xe1, 0x01, 0x0f, 0x0f, 0x00, 0x27, 0x00,
   0x00, 0x00, 0x00, 0x00, 0x00, 0x00, 0x00, 0x00, 0x00, 0x00, 0x00, 0x00,
   0x00, 0x00, 0x00, 0x00, 0x00, 0xfc, 0x00, 0x00, 0x82, 0x03, 0xe0, 0xe0,
   0x81, 0x0f, 0x0e, 0x00, 0x27, 0x00, 0x00, 0x00, 0x00, 0x00, 0x00, 0x00,
   0x00, 0x00, 0x00, 0x00, 0x00, 0x00, 0x00, 0x00, 0x00, 0x00, 0x00, 0xfc,
   0x00, 0x00, 0x82, 0x03, 0xf0, 0xe0, 0x81, 0x0f, 0x0e, 0x00, 0x27, 0x00,
   0x00, 0x00, 0x00, 0x00, 0x00, 0x00, 0x00, 0x00, 0x00, 0x00, 0x00, 0x00,
   0x00, 0x00, 0x00, 0x00, 0x00, 0xfc, 0x00, 0x00, 0x82, 0x03, 0x70, 0xc0,
   0x81, 0x0f, 0x1e, 0x00, 0x26, 0x00, 0x00, 0x00, 0x00, 0x00, 0x00, 0x00,
   0x00, 0x00, 0x00, 0x00, 0x00, 0x00, 0x00, 0x00, 0x00, 0x00, 0x00, 0xfc,
   0x00, 0x00, 0x82, 0x03, 0x70, 0xc0, 0x81, 0x0f, 0x1e, 0x00, 0x26, 0x00,
   0x00, 0x00, 0x00, 0x00, 0x00, 0x00, 0x00, 0x00, 0x00, 0x00, 0x00, 0x00,
   0x00, 0x00, 0x00, 0x00, 0x00, 0xfc, 0x00, 0x00, 0x82, 0x03, 0x70, 0xc0,
   0x81, 0x0f, 0x1c, 0x00, 0x26, 0x00, 0x00, 0x00, 0x00, 0x00, 0x00, 0x00,
   0x00, 0x00, 0x00, 0x00, 0x00, 0x00, 0x00, 0x00, 0x00, 0x00, 0x00, 0xfc,
   0x00, 0x00, 0x82, 0x03, 0x70, 0xc0, 0x81, 0x0f, 0x1c, 0x00, 0x26, 0x00,
   0x00, 0x00, 0x00, 0x00, 0x00, 0x00, 0x00, 0x00, 0x00, 0x00, 0x00, 0x00,
   0x00, 0x00, 0x00, 0x00, 0x00, 0xfc, 0x00, 0x00, 0x82, 0x03, 0x78, 0xc0,
   0x81, 0x0f, 0x1c, 0x00, 0x26, 0x00, 0x00, 0xf8, 0xff, 0xff, 0x3f, 0x00,
   0xc0, 0xff, 0xff, 0xeb, 0xff, 0xff, 0x01, 0xc0, 0xff, 0xc0, 0x01, 0xfc,
   0x00, 0x00, 0x82, 0x03, 0x38, 0xc0, 0x81, 0x07, 0x3c, 0x00, 0x26, 0x00,
   0x00, 0xf8, 0xff, 0xff, 0x3f, 0x00, 0xc0, 0xff, 0xff, 0xe3, 0xff, 0xff,
   0x01, 0xc0, 0xff, 0xc0, 0x01, 0xfc, 0x00, 0x00, 0x82, 0x01, 0x38, 0xc0,
   0x81, 0x07, 0x38, 0x00, 0x26, 0x00, 0x00, 0xf8, 0xff, 0xff, 0xff, 0x07,
   0xc0, 0xff, 0xff, 0xe3, 0xff, 0xff, 0x01, 0xfe, 0xff, 0xf7, 0x01, 0xfc,
   0x00, 0x00, 0x82, 0x01, 0x38, 0xc0, 0x83, 0x07, 0x38, 0x00, 0x26, 0x00,
   0x00, 0xf8, 0xff, 0xff, 0xff, 0x07, 0xc0, 0xff, 0xff, 0xe3, 0xff, 0xff,
   0x01, 0xff, 0xff, 0xf7, 0x01, 0xfc, 0x00, 0x00, 0x82, 0x01, 0x3c, 0xc0,
   0x83, 0x07, 0x38, 0x00, 0x26, 0x00, 0x00, 0x00, 0xff, 0x03, 0xf8, 0x0f,
   0x00, 0xf8, 0x1f, 0x00, 0xfc, 0x0f, 0x80, 0x3f, 0xc0, 0xff, 0x01, 0xfc,
   0x00, 0x00, 0x82, 0x01, 0x1c, 0xc0, 0x83, 0x07, 0x70, 0x00, 0x26, 0x00,
   0x00, 0x00, 0xff, 0x03, 0xf0, 0x3f, 0x00, 0xf8, 0x1f, 0x00, 0xfc, 0x0f,
   0xc0, 0x1f, 0x00, 0xfe, 0x01, 0xfc, 0x00, 0x00, 0x82, 0x01, 0x1c, 0xc0,
   0x83, 0x03, 0x70, 0x00, 0x26, 0x00, 0x00, 0x00, 0xff, 0x03, 0xf0, 0x3f,
   0x00, 0xf8, 0x1f, 0x00, 0xf8, 0x0f, 0xc0, 0x0f, 0x00, 0xfe, 0x01, 0xfc,
   0x00, 0x00, 0x82, 0x01, 0x1c, 0xc0, 0x83, 0x03, 0x70, 0x00, 0x26, 0x00,
   0x00, 0x00, 0xff, 0x03, 0xe0, 0xff, 0x00, 0xf8, 0x1f, 0x00, 0xf8, 0x0f,
   0xc0, 0x07, 0x00, 0xf8, 0x01, 0xfc, 0x00, 0x00, 0x82, 0x01, 0x0e, 0xc0,
   0x83, 0x03, 0x70, 0x00, 0x26, 0x00, 0x00, 0x00, 0xff, 0x03, 0xc0, 0xff,
   0x00, 0xf8, 0x1f, 0x00, 0xf8, 0x0f, 0xc0, 0x07, 0x00, 0xf8, 0x01, 0xfc,
   0x00, 0x00, 0x82, 0x01, 0x0e, 0x80, 0x83, 0x03, 0xe0, 0x00, 0x26, 0x00,
   0x00, 0x00, 0xff, 0x03, 0x80, 0xff, 0x01, 0xf8, 0x1f, 0x00, 0xf8, 0x0f,
   0xf0, 0x07, 0x00, 0xf0, 0x01, 0xfc, 0x00, 0x00, 0x82, 0x01, 0x0e, 0x80,
   0x83, 0x03, 0xe0, 0x00, 0x26, 0x00, 0x00, 0x00, 0xff, 0x03, 0x80, 0xff,
   0x01, 0xf8, 0x1f, 0x00, 0xf8, 0x0f, 0xf0, 0x07, 0x00, 0xe0, 0x01, 0xfc,
   0x00, 0x00, 0x82, 0x01, 0x0e, 0x80, 0x83, 0x03, 0xc0, 0x00, 0x26, 0x00,
   0x00, 0x00, 0xff, 0x03, 0x80, 0xff, 0x01, 0xf8, 0x1f, 0x00, 0xf8, 0x0f,
   0xf0, 0x17, 0x00, 0xc0, 0x01, 0xfc, 0x00, 0x00, 0x82, 0x01, 0x07, 0x80,
   0x83, 0x03, 0xc0, 0x00, 0x26, 0x00, 0x00, 0x00, 0xff, 0x03, 0x80, 0xff,
   0x03, 0xf8, 0x1f, 0x00, 0xf8, 0x0f, 0xf0, 0x07, 0x00, 0xc0, 0x01, 0xfc,
   0x00, 0x00, 0x82, 0x01, 0x07, 0x80, 0x83, 0x03, 0xc0, 0x00, 0x26, 0x00,
   0x00, 0x00, 0xff, 0x03, 0x80, 0xff, 0x07, 0xf8, 0x1f, 0x00, 0xf8, 0x0f,
   0xf0, 0x0f, 0x00, 0xc0, 0x01, 0xfc, 0x00, 0x00, 0x82, 0x01, 0x07, 0x80,
   0x83, 0x03, 0x80, 0x01, 0x26, 0x00, 0x00, 0x00, 0xff, 0x03, 0x00, 0xfe,
   0x07, 0xf8, 0x1f, 0x00, 0xf8, 0x0f, 0xf0, 0xff, 0x01, 0xc0, 0x01, 0xfc,
   0x00, 0x00, 0x82, 0x01, 0x07, 0x80, 0xc3, 0x03, 0x80, 0x01, 0x26, 0x00,
   0x00, 0x00, 0xff, 0x03, 0x00, 0xfe, 0x0f, 0xf8, 0x1f, 0x00, 0xf8, 0x0f,
   0xf0, 0xff, 0x01, 0x80, 0x01, 0xfc, 0x00, 0x00, 0x82, 0x01, 0x07, 0x80,
   0xc3, 0x03, 0x80, 0x01, 0x26, 0x00, 0x00, 0x00, 0xff, 0x03, 0x00, 0xfe,
   0x07, 0xf8, 0x1f, 0x00, 0xf8, 0x0f, 0xf0, 0xff, 0xff, 0x00, 0x00, 0xfc,
   0x00, 0x00, 0x82, 0x81, 0x03, 0x80, 0xc3, 0x03, 0x80, 0x01, 0x26, 0x00,
   0x00, 0x00, 0xff, 0x03, 0x00, 0xfe, 0x07, 0xf8, 0x1f, 0x00, 0xf8, 0x0f,
   0xf0, 0xff, 0xff, 0x00, 0x00, 0xfc, 0x00, 0x00, 0x82, 0x81, 0x03, 0x00,
   0xc3, 0x03, 0x80, 0x03, 0x26, 0x00, 0x00, 0x00, 0xff, 0x03, 0x00, 0xfe,
   0x07, 0xf8, 0x1f, 0x00, 0xf8, 0x0f, 0xc0, 0xff, 0xff, 0x1f, 0x00, 0xfc,
   0x00, 0x00, 0x82, 0x81, 0x03, 0x00, 0xc3, 0x01, 0x00, 0x03, 0x26, 0x00,
   0x00, 0x00, 0xff, 0x03, 0x00, 0xfe, 0x07, 0xf8, 0x1f, 0x00, 0xf8, 0x0f,
   0xc0, 0xff, 0xff, 0x5f, 0x00, 0xfc, 0x00, 0x00, 0x82, 0x81, 0x01, 0x00,
   0xc7, 0x01, 0x00, 0x07, 0x26, 0x00, 0x00, 0x00, 0xff, 0x03, 0x00, 0xfe,
   0x07, 0xf8, 0x1f, 0x00, 0xf8, 0x0f, 0xc0, 0xff, 0xff, 0x3f, 0x00, 0xfc,
   0x00, 0x00, 0x82, 0x81, 0x01, 0x00, 0xc7, 0x01, 0x00, 0x07, 0x26, 0x00,
   0x00, 0x00, 0xff, 0x03, 0x00, 0xfe, 0x07, 0xf8, 0x1f, 0x00, 0xf8, 0x0f,
   0xc0, 0xff, 0xff, 0x7f, 0x00, 0xfc, 0x00, 0x00, 0x82, 0xc1, 0x01, 0x00,
   0xc7, 0x01, 0x00, 0x07, 0x26, 0x00, 0x00, 0x00, 0xff, 0x03, 0x00, 0xfe,
   0x07, 0xf8, 0xff, 0xff, 0xff, 0x0f, 0x80, 0xff, 0xff, 0xff, 0x00, 0xfc,
   0x00, 0x00, 0x82, 0xc0, 0x00, 0x00, 0xc7, 0x01, 0x00, 0x06, 0x26, 0x00,
   0x00, 0x00, 0xff, 0x03, 0x00, 0xfe, 0x07, 0xf8, 0xff, 0xff, 0xff, 0x0f,
   0x00, 0xfc, 0xff, 0xff, 0x01, 0xfc, 0x00, 0x00, 0x82, 0xc0, 0x00, 0x00,
   0xc7, 0x01, 0x00, 0x0e, 0x26, 0x00, 0x00, 0x00, 0xff, 0x03, 0x00, 0xfe,
   0x07, 0xf8, 0xff, 0xff, 0xff, 0x0f, 0x00, 0xfc, 0xff, 0xff, 0x01, 0xfc,
   0x00, 0x00, 0x82, 0xc0, 0x00, 0x00, 0xc6, 0x01, 0x00, 0x0e, 0x24, 0x00,
   0x00, 0x00, 0xff, 0x03, 0x00, 0xfe, 0x07, 0xf8, 0x0f, 0x00, 0xf8, 0x0f,
   0x00, 0xf0, 0xff, 0xff, 0x07, 0xfc, 0x00, 0x00, 0x82, 0xe0, 0x00, 0x00,
   0xc6, 0x01, 0x00, 0x0c, 0x24, 0x00, 0x00, 0x00, 0xff, 0x03, 0x00, 0xfe,
   0x07, 0xf8, 0x0f, 0x00, 0xf8, 0x0f, 0x00, 0xf0, 0xff, 0xff, 0x07, 0xfc,
   0x00, 0x00, 0x82, 0xe0, 0x00, 0x00, 0xc6, 0x01, 0x00, 0x0c, 0x24, 0x00,
   0x00, 0x00, 0xff, 0x03, 0x00, 0xfe, 0x07, 0xf8, 0x0f, 0x00, 0xf8, 0x0f,
   0x40, 0x00, 0xf8, 0xff, 0x07, 0xfc, 0x00, 0x00, 0x82, 0x60, 0x00, 0x00,
   0xc6, 0x01, 0x00, 0x1c, 0x24, 0x00, 0x00, 0x00, 0xff, 0x03, 0x00, 0xfe,
   0x07, 0xf8, 0x0f, 0x00, 0xf8, 0x0f, 0x40, 0x00, 0xf8, 0xff, 0x07, 0xfc,
   0x00, 0x00, 0x82, 0x70, 0x00, 0x00, 0xc6, 0x01, 0x00, 0x18, 0x24, 0x00,
   0x00, 0x00, 0xff, 0x03, 0x80, 0xff, 0x07, 0xf8, 0x0f, 0x00, 0xf8, 0x0f,
   0xc0, 0x01, 0x00, 0xfe, 0x07, 0xfc, 0x00, 0x00, 0x82, 0x70, 0x00, 0x00,
   0xc6, 0x00, 0x00, 0x18, 0x24, 0x00, 0x00, 0x00, 0xff, 0x03, 0x80, 0xff,
   0x07, 0xf8, 0x0f, 0x00, 0xf8, 0x0f, 0xc0, 0x01, 0x00, 0xfe, 0x07, 0xfc,
   0x00, 0x00, 0x82, 0x30, 0x00, 0x00, 0xc6, 0x00, 0x00, 0x18, 0x24, 0x00,
   0x00, 0x00, 0xff, 0x03, 0x80, 0xff, 0x01, 0xf8, 0x0f, 0x00, 0xf8, 0x0f,
   0xc0, 0x05, 0x00, 0xf8, 0x07, 0xfc, 0x00, 0x00, 0x82, 0x38, 0x00, 0x00,
   0xc6, 0x00, 0x00, 0x30, 0x24, 0x00, 0x00, 0x00, 0xff, 0x03, 0x80, 0xff,
   0x01, 0xf8, 0x0f, 0x00, 0xf8, 0x0f, 0xc0, 0x03, 0x00, 0xf0, 0x07, 0xfc,
   0x00, 0x00, 0x82, 0x38, 0x00, 0x00, 0xc6, 0x00, 0x00, 0x30, 0x24, 0x00,
   0x00, 0x00, 0xff, 0x03, 0x80, 0xff, 0x01, 0xf8, 0x0f, 0x00, 0xf8, 0x0f,
   0xc0, 0x07, 0x00, 0xf0, 0x07, 0xfc, 0x00, 0x00, 0x82, 0x38, 0x00, 0x00,
   0xce, 0x00, 0x00, 0x30, 0x24, 0x00, 0x00, 0x00, 0xff, 0x03, 0x80, 0xff,
   0x01, 0xf8, 0x0f, 0x00, 0xf8, 0x0f, 0xc0, 0x07, 0x00, 0xf0, 0x07, 0xfc,
   0x00, 0x00, 0x82, 0x18, 0x00, 0x00, 0xee, 0x00, 0x00, 0x20, 0x24, 0x00,
   0x00, 0x00, 0xff, 0x03, 0x80, 0xff, 0x01, 0xf8, 0x0f, 0x00, 0xf8, 0x0f,
   0xc0, 0x07, 0x00, 0xf0, 0x07, 0xfc, 0x00, 0x00, 0x82, 0x18, 0x00, 0x00,
   0xee, 0x00, 0x00, 0x60, 0x24, 0x00, 0x00, 0x00, 0xff, 0x03, 0xc0, 0xff,
   0x00, 0xf8, 0x0f, 0x00, 0xf8, 0x0f, 0xc0, 0x0f, 0x00, 0xf0, 0x01, 0xfc,
   0x00, 0x00, 0x82, 0x0c, 0x00, 0x00, 0xee, 0x00, 0x00, 0x60, 0x24, 0x00,
   0x00, 0x00, 0xff, 0x03, 0xe0, 0xff, 0x00, 0xf8, 0x0f, 0x00, 0xf8, 0x0f,
   0xc0, 0x0f, 0x00, 0xf0, 0x01, 0xfc, 0x00, 0x00, 0x82, 0x0c, 0x00, 0x00,
   0xec, 0x00, 0x00, 0x60, 0x24, 0x00, 0x00, 0x00, 0xff, 0x03, 0xf0, 0x3f,
   0x00, 0xf8, 0x0f, 0x00, 0xf8, 0x0f, 0xc0, 0x7f, 0x00, 0xf8, 0x01, 0xfc,
   0x00, 0x00, 0x82, 0x0c, 0x00, 0x00, 0xec, 0x00, 0x00, 0x60, 0x24, 0x00,
   0x00, 0x00, 0xff, 0x03, 0xf0, 0x3f, 0x00, 0xf8, 0x0f, 0x00, 0xf8, 0x0f,
   0xc0, 0xff, 0x00, 0xfc, 0x01, 0xfc, 0x00, 0x00, 0x82, 0x04, 0x00, 0x00,
   0xec, 0x00, 0x00, 0xc0, 0x24, 0x00, 0x00, 0x00, 0xff, 0x03, 0xfc, 0x0f,
   0x00, 0xf8, 0x0f, 0x00, 0xf8, 0x0f, 0xc0, 0xff, 0x01, 0xfe, 0x00, 0xfc,
   0x00, 0x00, 0x82, 0x06, 0x00, 0x00, 0xec, 0x00, 0x00, 0xc0, 0x24, 0x00,
   0x00, 0xf8, 0xff, 0x03, 0xfe, 0x07, 0xc0, 0xff, 0xff, 0xe3, 0xff, 0xff,
   0xc1, 0xf1, 0xff, 0x7f, 0x00, 0xfc, 0x00, 0x00, 0x82, 0x06, 0x00, 0x00,
   0x6c, 0x00, 0x00, 0xc0, 0x24, 0x00, 0x00, 0xf8, 0xff, 0xff, 0xff, 0x07,
   0xc0, 0xff, 0xff, 0xe3, 0xff, 0xff, 0xc1, 0xf1, 0xff, 0x3f, 0x00, 0xfc,
   0x00, 0x00, 0x82, 0x06, 0x00, 0x00, 0x6c, 0x00, 0x00, 0x80, 0x24, 0x00,
   0x00, 0xf8, 0xff, 0xff, 0x3f, 0x00, 0xc0, 0xff, 0xff, 0xe3, 0xff, 0xff,
   0xc1, 0x81, 0xff, 0x07, 0x00, 0xfc, 0x00, 0x00, 0x82, 0x06, 0x00, 0x00,
   0x6c, 0x00, 0x00, 0x80, 0x24, 0x00, 0x00, 0xf8, 0xff, 0xff, 0x3f, 0x00,
   0xc0, 0xff, 0xff, 0xe3, 0xff, 0xff, 0xc1, 0x81, 0xff, 0x07, 0x00, 0xfc,
   0x00, 0x00, 0x82, 0x03, 0x00, 0x00, 0x6c, 0x00, 0x00, 0x80, 0x25, 0x00,
   0x00, 0x00, 0x00, 0x00, 0x00, 0x00, 0x00, 0x00, 0x00, 0x00, 0x00, 0x00,
   0x00, 0x00, 0x00, 0x00, 0x00, 0xfc, 0x00, 0x00, 0x82, 0x03, 0x00, 0x00,
   0x6c, 0x00, 0x00, 0x00, 0x25, 0x00, 0x00, 0x00, 0x00, 0x00, 0x00, 0x00,
   0x00, 0x00, 0x00, 0x00, 0x00, 0x00, 0x00, 0x00, 0x00, 0x00, 0x00, 0xfc,
   0x00, 0x00, 0x82, 0x03, 0x00, 0x00, 0x6c, 0x00, 0x00, 0x00, 0x27, 0x00,
   0x00, 0x00, 0x00, 0x00, 0x00, 0x00, 0x00, 0x00, 0x00, 0x00, 0x00, 0x00,
   0x00, 0x00, 0x00, 0x00, 0x00, 0xfc, 0x00, 0x00, 0x82, 0x01, 0x00, 0x00,
   0x6c, 0x00, 0x00, 0x00, 0x27, 0x00, 0x00, 0x00, 0x00, 0x00, 0x00, 0x00,
   0x00, 0x00, 0x00, 0x00, 0x00, 0x00, 0x00, 0x00, 0x00, 0x00, 0x00, 0xfc,
   0x00, 0x00, 0x82, 0x01, 0x00, 0x00, 0x6c, 0x00, 0x00, 0x00, 0x27, 0x00,
   0x00, 0x00, 0x00, 0x00, 0x00, 0x00, 0x00, 0x00, 0x00, 0x00, 0x00, 0x00,
   0x00, 0x00, 0x00, 0x00, 0x00, 0xfc, 0x00, 0x00, 0x82, 0x01, 0x00, 0x00,
   0x68, 0x00, 0x00, 0x00, 0x27, 0x00, 0x00, 0x00, 0x00, 0x00, 0x00, 0x00,
   0x00, 0x00, 0x00, 0x00, 0x00, 0x00, 0x00, 0x00, 0x00, 0x00, 0x00, 0xfc,
   0x00, 0x00, 0x82, 0x01, 0x00, 0x00, 0x68, 0x00, 0x00, 0x00, 0x26, 0x00,
   0x00, 0x00, 0x00, 0x00, 0x00, 0x00, 0x00, 0x00, 0x00, 0x00, 0x00, 0x00,
   0x00, 0x00, 0x00, 0x00, 0x00, 0xfc, 0x00, 0x00, 0x82, 0x00, 0x00, 0x00,
   0x68, 0x00, 0x00, 0x00, 0x26, 0x00, 0x00, 0x00, 0x00, 0x00, 0x00, 0x00,
   0x00, 0x00, 0x00, 0x00, 0x00, 0x00, 0x00, 0x00, 0x00, 0x00, 0x00, 0xfc,
   0x00, 0x00, 0x82, 0x00, 0x00, 0x00, 0x68, 0x00, 0x00, 0x00, 0x26, 0x00,
   0x00, 0x00, 0x00, 0x00, 0x00, 0x00, 0x00, 0x00, 0x00, 0x00, 0x00, 0x00,
   0x00, 0x00, 0x00, 0x00, 0x00, 0xfc, 0x00, 0x00, 0x82, 0x07, 0x00, 0x00,
   0x78, 0x00, 0x00, 0x80, 0x27, 0x00, 0x00, 0x00, 0x00, 0x00, 0x00, 0x00,
   0x00, 0x00, 0x00, 0x00, 0x00, 0x00, 0x00, 0x00, 0x00, 0x00, 0x00, 0xfc,
   0x00, 0x00, 0x02, 0xff, 0x03, 0x00, 0x38, 0x00, 0x00, 0xfe, 0x20, 0x00,
   0x00, 0x00, 0x00, 0x00, 0x00, 0x00, 0x00, 0x00, 0x00, 0x00, 0x00, 0x00,
   0x00, 0x00, 0x00, 0x00, 0x00, 0xfc, 0x00, 0x00, 0x02, 0xe0, 0xff, 0x0f,
   0x38, 0x00, 0xff, 0x1f, 0x20, 0x00, 0x00, 0x00, 0x00, 0x00, 0x00, 0x00,
   0x00, 0x00, 0x00, 0x00, 0x00, 0x00, 0x00, 0x00, 0x00, 0x00, 0x00, 0xfc,
   0x00, 0x00, 0x02, 0x00, 0x00, 0xf8, 0xff, 0xff, 0x00, 0x00, 0x20, 0x00,
   0x00, 0x00, 0x00, 0x00, 0x00, 0x00, 0x00, 0x00, 0x00, 0x00, 0x00, 0x00,
   0x00, 0x00, 0x00, 0x00, 0x00, 0xfc, 0x00, 0x00, 0x02, 0x00, 0x00, 0x00,
   0x38, 0x00, 0x00, 0x00, 0x20, 0x00, 0x00, 0x00, 0x00, 0x00, 0x00, 0x00,
   0x00, 0x00, 0x00, 0x00, 0x00, 0x00, 0x00, 0x00, 0x00, 0x00, 0x00, 0xfc,
   0x00, 0x00, 0x02, 0x00, 0x00, 0x00, 0x38, 0x00, 0x00, 0x00, 0x20, 0x00,
   0x00, 0x00, 0x00, 0x00, 0x00, 0x00, 0x00, 0x00, 0x00, 0x00, 0x00, 0x00,
   0x00, 0x00, 0x00, 0x00, 0x00, 0xfc, 0x00, 0x00, 0x00, 0x00, 0x00, 0x00,
   0x38, 0x00, 0x00, 0x00, 0x20, 0x00, 0x00, 0x00, 0x00, 0x00, 0x00, 0x00,
   0x00, 0x00, 0x00, 0x00, 0x00, 0x00, 0x00, 0x00, 0x00, 0x00, 0x00, 0xfc,
   0x00, 0x00, 0xfe, 0xff, 0xff, 0xff, 0xff, 0xff, 0xff, 0xff, 0x3f, 0x00,
   0x00, 0x00, 0x00, 0x00, 0x00, 0x00, 0x00, 0x00, 0x00, 0x00, 0x00, 0x00,
   0x00, 0x00, 0x00, 0x00, 0x00, 0xfc, 0x00, 0x00, 0x00, 0x00, 0x00, 0x00,
   0x30, 0x00, 0x00, 0x00, 0x00, 0x00, 0x00, 0x00, 0x00, 0x00, 0x00, 0x00,
   0x00, 0x00, 0x00, 0x00, 0x00, 0x00, 0x00, 0x00, 0x00, 0x00, 0x00, 0xfc,
   0x00, 0x00, 0x00, 0x00, 0x00, 0x00, 0x00, 0x00, 0x00, 0x00, 0x00, 0x00,
   0x00, 0x00, 0x00, 0x00, 0x00, 0x00, 0x00, 0x00, 0x00, 0x00, 0x00, 0x00,
   0x00, 0x00, 0x00, 0x00, 0x00, 0xfc, 0x00, 0x00, 0x00, 0x00, 0x00, 0x00,
   0x00, 0x00, 0x00, 0x00, 0x00, 0x00, 0x00, 0x00, 0x00, 0x00, 0x00, 0x00,
   0x00, 0x00, 0x00, 0x00, 0x00, 0x00, 0x00, 0x00, 0x00, 0x00, 0x00, 0xfc,
   0x00, 0x00, 0x00, 0x00, 0x00, 0x00, 0x00, 0x00, 0x00, 0x00, 0x00, 0x00,
   0x00, 0x00, 0x00, 0x00, 0x00, 0x00, 0x00, 0x00, 0x00, 0x00, 0x00, 0x00,
   0x00, 0x00, 0x00, 0x00, 0x00, 0xfc, 0x00, 0x00, 0x00, 0x00, 0x00, 0x00,
   0x00, 0x00, 0x00, 0x00, 0x00, 0x00, 0x00, 0x00, 0x00, 0x00, 0x00, 0x00,
   0x00, 0x00, 0x00, 0x00, 0x00, 0x00, 0x00, 0x00, 0x00, 0x00, 0x00, 0xfc,
   0x00, 0x00, 0x00, 0x00, 0x00, 0x00, 0x00, 0x00, 0x00, 0x00, 0x00, 0x00,
   0x00, 0x00, 0x00, 0x00, 0x00, 0x00, 0x00, 0x00, 0x00, 0x00, 0x00, 0x00,
   0x00, 0x00, 0x00, 0x00, 0x00, 0xfc, 0x00, 0x00, 0xe0, 0x0f, 0xfe, 0xc7,
   0x01, 0xc7, 0x18, 0x20, 0x06, 0x00, 0x00, 0x00, 0x00, 0x00, 0x00, 0x00,
   0x00, 0x00, 0x00, 0x00, 0x00, 0x00, 0x00, 0x00, 0x00, 0x00, 0x00, 0xfc,
   0x00, 0x00, 0x70, 0x1c, 0x06, 0xc0, 0x01, 0xc7, 0x38, 0x20, 0x06, 0x00,
   0x00, 0x00, 0x00, 0x00, 0x00, 0x00, 0x00, 0x00, 0x00, 0x00, 0x00, 0x00,
   0x00, 0x00, 0x00, 0x00, 0x00, 0xfc, 0x00, 0x00, 0x18, 0x30, 0x06, 0xc0,
   0x01, 0xc7, 0x38, 0x20, 0x06, 0x00, 0x00, 0x00, 0x00, 0x00, 0x00, 0x00,
   0x00, 0x00, 0x00, 0x00, 0x00, 0x00, 0x00, 0x00, 0x00, 0x00, 0x00, 0xfc,
   0x00, 0x00, 0x08, 0x70, 0x06, 0xc0, 0x83, 0xc7, 0x78, 0x20, 0x06, 0x00,
   0x00, 0x00, 0x00, 0x00, 0x00, 0x00, 0x00, 0x00, 0x00, 0x00, 0x00, 0x00,
   0x00, 0x00, 0x00, 0x00, 0x00, 0xfc, 0x00, 0x00, 0x0c, 0x20, 0x06, 0xc0,
   0x83, 0xc7, 0x58, 0x20, 0x06, 0x00, 0x00, 0x00, 0x00, 0x00, 0x00, 0x00,
   0x00, 0x00, 0x00, 0x00, 0x00, 0x00, 0x00, 0x00, 0x00, 0x00, 0x00, 0xfc,
   0x00, 0x00, 0x04, 0x00, 0x06, 0xc0, 0x82, 0xc6, 0xd8, 0x20, 0x06, 0x00,
   0x00, 0x00, 0x00, 0x00, 0x00, 0x00, 0x00, 0x00, 0x00, 0x00, 0x00, 0x00,
   0x00, 0x00, 0x00, 0x00, 0x00, 0xfc, 0x00, 0x00, 0x04, 0x00, 0x06, 0xc0,
   0x82, 0xc6, 0x98, 0x20, 0x06, 0x00, 0x00, 0x00, 0x00, 0x00, 0x00, 0x00,
   0x00, 0x00, 0x00, 0x00, 0x00, 0x00, 0x00, 0x00, 0x00, 0x00, 0x00, 0xfc,
   0x00, 0x00, 0x04, 0x00, 0xfe, 0xc7, 0xc6, 0xc6, 0x98, 0x21, 0x06, 0x00,
   0x00, 0x00, 0x00, 0x00, 0x00, 0x00, 0x00, 0x00, 0x00, 0x00, 0x00, 0x00,
   0x00, 0x00, 0x00, 0x00, 0x00, 0xfc, 0x00, 0x00, 0x04, 0x7e, 0xfe, 0xc7,
   0xc6, 0xc6, 0x18, 0x21, 0x06, 0x00, 0x00, 0x00, 0x00, 0x00, 0x00, 0x00,
   0x00, 0x00, 0x00, 0x00, 0x00, 0x00, 0x00, 0x00, 0x00, 0x00, 0x00, 0xfc,
   0x00, 0x00, 0x04, 0x7e, 0x06, 0xc0, 0x44, 0xc6, 0x18, 0x23, 0x06, 0x00,
   0x00, 0x00, 0x00, 0x00, 0x00, 0x00, 0x00, 0x00, 0x00, 0x00, 0x00, 0x00,
   0x00, 0x00, 0x00, 0x00, 0x00, 0xfc, 0x00, 0x00, 0x04, 0x60, 0x06, 0xc0,
   0x6c, 0xc6, 0x18, 0x26, 0x06, 0x00, 0x00, 0x00, 0x00, 0x00, 0x00, 0x00,
   0x00, 0x00, 0x00, 0x00, 0x00, 0x00, 0x00, 0x00, 0x00, 0x00, 0x00, 0xfc,
   0x00, 0x00, 0x0c, 0x60, 0x06, 0xc0, 0x6c, 0xc6, 0x18, 0x2e, 0x06, 0x00,
   0x00, 0x00, 0x00, 0x00, 0x00, 0x00, 0x00, 0x00, 0x00, 0x00, 0x00, 0x00,
   0x00, 0x00, 0x00, 0x00, 0x00, 0xfc, 0x00, 0x00, 0x08, 0x60, 0x06, 0xc0,
   0x68, 0xc6, 0x18, 0x28, 0x06, 0x00, 0x00, 0x00, 0x00, 0x00, 0x00, 0x00,
   0x00, 0x00, 0x00, 0x00, 0x00, 0x00, 0x00, 0x00, 0x00, 0x00, 0x00, 0xfc,
   0x00, 0x00, 0x18, 0x70, 0x06, 0xc0, 0x28, 0xc6, 0x18, 0x38, 0x06, 0x00,
   0x00, 0x00, 0x00, 0x00, 0x00, 0x00, 0x00, 0x00, 0x00, 0x00, 0x00, 0x00,
   0x00, 0x00, 0x00, 0x00, 0x00, 0xfc, 0x00, 0x00, 0xf0, 0x7c, 0x06, 0xc0,
   0x38, 0xc6, 0x18, 0x30, 0x06, 0x00, 0x00, 0x00, 0x00, 0x00, 0x00, 0x00,
   0x00, 0x00, 0x00, 0x00, 0x00, 0x00, 0x00, 0x00, 0x00, 0x00, 0x00, 0xfc,
   0x00, 0x00, 0xe0, 0x0f, 0xfe, 0xc7, 0x38, 0xc6, 0x18, 0x30, 0x06, 0x00,
   0x00, 0x00, 0x00, 0x00, 0x00, 0x00, 0x00, 0x00, 0x00, 0x00, 0x00, 0x00,
   0x00, 0x00, 0x00, 0x00, 0x00, 0xfc, 0x00, 0x00, 0x00, 0x00, 0x00, 0x00,
   0x00, 0x00, 0x00, 0x00, 0x00, 0x00, 0x00, 0x00, 0x00, 0x00, 0x00, 0x00,
   0x00, 0x00, 0x00, 0x00, 0x00, 0x00, 0x00, 0x00, 0x00, 0x00, 0x00, 0xfc,
   0x00, 0x00, 0x00, 0x00, 0x00, 0x00, 0x00, 0x00, 0x00, 0x00, 0x00, 0x00,
   0x00, 0x00, 0x00, 0x00, 0x00, 0x00, 0x00, 0x00, 0x00, 0x00, 0x00, 0x00,
   0x00, 0x00, 0x00, 0x00, 0x00, 0xfc, 0x00, 0x00, 0x00, 0x00, 0x00, 0x00,
   0x00, 0x00, 0x00, 0x00, 0x00, 0x00, 0x00, 0x00, 0x00, 0x00, 0x00, 0x00,
   0x00, 0x00, 0x00, 0x00, 0x00, 0x00, 0x00, 0x00, 0x00, 0x00, 0x00, 0xfc,
   0x00, 0x00, 0x00, 0x00, 0x00, 0x00, 0x00, 0x00, 0x00, 0x00, 0x00, 0x00,
   0x00, 0x00, 0x00, 0x00, 0x00, 0x00, 0x00, 0x00, 0x00, 0x00, 0x00, 0x00,
   0x00, 0x00, 0x00, 0x00, 0x00, 0xfc, 0x00, 0x00, 0x00, 0x00, 0x00, 0x00,
   0x00, 0x00, 0x00, 0x00, 0x00, 0x00, 0x00, 0x00, 0x00, 0x00, 0x00, 0x00,
   0x00, 0x00, 0x00, 0x00, 0x00, 0x00, 0x00, 0x00, 0x00, 0x00, 0x00, 0xfc,
   0x00, 0x00, 0x00, 0x00, 0x00, 0x00, 0x00, 0x00, 0x00, 0x00, 0x00, 0x00,
   0x00, 0x00, 0x00, 0x00, 0x00, 0x00, 0x00, 0x00, 0x00, 0x00, 0x00, 0x00,
   0x00, 0x00, 0x00, 0x00, 0x00, 0xfc, 0x00, 0x00, 0x00, 0x00, 0x00, 0x00,
   0x00, 0x00, 0x00, 0x00, 0x00, 0x00, 0x00, 0x00, 0x00, 0x00, 0x00, 0x00,
   0x00, 0x00, 0x00, 0x00, 0x00, 0x00, 0x00, 0x00, 0x00, 0x00, 0x00, 0xfc,
   0x00, 0x00, 0x00, 0x00, 0x00, 0x00, 0x00, 0x00, 0x00, 0x00, 0x00, 0x00,
   0x00, 0x00, 0x00, 0x00, 0x00, 0x00, 0x00, 0x00, 0x00, 0x00, 0x00, 0x00,
   0x00, 0x00, 0x00, 0x00, 0x00, 0xfc, 0x00, 0x00, 0x00, 0x00, 0x00, 0x00,
   0x00, 0x00, 0x00, 0x00, 0x00, 0x00, 0x00, 0x00, 0x00, 0x00, 0x00, 0x00,
   0x00, 0x00, 0x00, 0x00, 0x00, 0x00, 0x00, 0x00, 0x00, 0x00, 0x00, 0xfc,
   0x00, 0x00, 0x00, 0x00, 0x00, 0x00, 0x00, 0x00, 0x00, 0x00, 0x00, 0x00,
   0x00, 0x00, 0x00, 0x00, 0x00, 0x00, 0x00, 0x00, 0x00, 0x00, 0x00, 0x00,
   0x00, 0x00, 0x00, 0x00, 0x00, 0xfc, 0x00, 0x00, 0x00, 0x00, 0x00, 0x00,
   0x00, 0x00, 0x00, 0x00, 0x00, 0x00, 0x00, 0x00, 0x00, 0x00, 0x00, 0x00,
   0x00, 0x00, 0x00, 0x00, 0x00, 0x00, 0x00, 0x00, 0x00, 0x00, 0x00, 0xfc,
   0x00, 0x00, 0x00, 0x00, 0x00, 0x00, 0x00, 0x00, 0x00, 0x00, 0x00, 0x00,
   0x00, 0x00, 0x00, 0x00, 0x00, 0x00, 0x00, 0x00, 0x00, 0x00, 0x00, 0x00,
   0x00, 0x00, 0x00, 0x00, 0x00, 0xfc, 0x00, 0x00, 0x00, 0x00, 0x00, 0x00,
   0x00, 0x00, 0x00, 0x00, 0x00, 0x00, 0x00, 0x00, 0x00, 0x00, 0x00, 0x00,
   0x00, 0x00, 0x00, 0x00, 0x00, 0x00, 0x00, 0x00, 0x00, 0x00, 0x00, 0xfc,
   0x00, 0x00, 0x00, 0x00, 0x00, 0x00, 0x00, 0x00, 0x00, 0x00, 0x00, 0x00,
   0x00, 0x00, 0x00, 0x00, 0x00, 0x00, 0x00, 0x00, 0x00, 0x00, 0x00, 0x00,
   0x00, 0x00, 0x00, 0x00, 0x00, 0xfc, 0x00, 0x00, 0x00, 0x00, 0x00, 0x00,
   0x00, 0x00, 0x00, 0x00, 0x00, 0x00, 0x00, 0x00, 0x00, 0x00, 0x00, 0x00,
   0x00, 0x00, 0x00, 0x00, 0x00, 0x00, 0x00, 0x00, 0x00, 0x00, 0x00, 0xfc};
