#define hourglassmsk_width 19
#define hourglassmsk_height 21
static unsigned char hourglassmsk_bits[] = {
   0xff, 0xff, 0x07, 0xff, 0xff, 0x07, 0xe6, 0x3f, 0x03, 0xe6, 0x3f, 0x03,
   0xe6, 0x3f, 0x03, 0xe6, 0x3f, 0x03, 0xe6, 0x3f, 0x03, 0xc6, 0x1f, 0x03,
   0x86, 0x0f, 0x03, 0x06, 0x07, 0x03, 0x06, 0x07, 0x03, 0x86, 0x0f, 0x03,
   0xc6, 0x1f, 0x03, 0xe6, 0x3f, 0x03, 0xe6, 0x3f, 0x03, 0xe6, 0x3f, 0x03,
   0xe6, 0x3f, 0x03, 0xe6, 0x3f, 0x03, 0xe2, 0x3f, 0x03, 0xff, 0xff, 0x07,
   0xff, 0xff, 0x07};
