#define hourglass_x_hot 9
#define hourglass_y_hot 10
#define hourglass_width 19
#define hourglass_height 21
static unsigned char hourglass_bits[] = {
   0xff, 0xff, 0x07, 0x55, 0x55, 0x05, 0x22, 0x20, 0x03, 0x26, 0x20, 0x01,
   0x22, 0x20, 0x03, 0x26, 0x20, 0x01, 0x62, 0x37, 0x03, 0xc6, 0x1f, 0x01,
   0x82, 0x0f, 0x03, 0x06, 0x07, 0x01, 0x02, 0x07, 0x03, 0x86, 0x0d, 0x01,
   0xc2, 0x18, 0x03, 0x66, 0x30, 0x01, 0x22, 0x20, 0x03, 0x26, 0x20, 0x01,
   0x22, 0x22, 0x03, 0x26, 0x27, 0x01, 0xa2, 0x2f, 0x03, 0xff, 0xff, 0x07,
   0xab, 0xaa, 0x02};
