#define smallGemini_width 57
#define smallGemini_height 57
static char smallGemini_bits[] = {
   0x00, 0x00, 0x00, 0x00, 0x00, 0x00, 0x00, 0x00, 0x00, 0x00, 0x00, 0x00,
   0x00, 0x00, 0x00, 0x00, 0x00, 0x00, 0x00, 0x00, 0x00, 0x00, 0x00, 0x00,
   0x00, 0x00, 0x00, 0x00, 0x00, 0x00, 0x00, 0x00, 0x00, 0x00, 0x00, 0x00,
   0x00, 0x00, 0x00, 0x00, 0x00, 0x00, 0x00, 0x00, 0x00, 0x00, 0x00, 0x00,
   0x00, 0x00, 0x00, 0x00, 0x00, 0x00, 0x00, 0x00, 0x00, 0x00, 0x00, 0x00,
   0x00, 0x00, 0x00, 0x00, 0x00, 0xfe, 0xff, 0xff, 0xff, 0xff, 0x01, 0x00,
   0x00, 0x02, 0x0e, 0xfc, 0x03, 0x07, 0x01, 0x00, 0x00, 0x02, 0x0e, 0xfe,
   0x07, 0x07, 0x01, 0x00, 0x00, 0x02, 0x0e, 0xfe, 0x07, 0x07, 0x01, 0x00,
   0x00, 0x02, 0x0e, 0x0e, 0x0e, 0x07, 0x01, 0x00, 0x00, 0x02, 0x0e, 0x0e,
   0x0e, 0x07, 0x01, 0x00, 0x00, 0x02, 0x0e, 0x0b, 0x0e, 0x07, 0x01, 0x00,
   0x00, 0x02, 0x0e, 0x09, 0x1a, 0x06, 0x01, 0x00, 0x00, 0x02, 0x06, 0x09,
   0x1a, 0x06, 0x01, 0x00, 0x00, 0x02, 0x86, 0x11, 0x19, 0x06, 0x01, 0x00,
   0x00, 0x02, 0x86, 0x11, 0x19, 0x06, 0x01, 0x00, 0x00, 0x02, 0x06, 0x11,
   0x11, 0x06, 0x01, 0x00, 0x00, 0x02, 0x86, 0x11, 0x11, 0x06, 0x01, 0x00,
   0x00, 0x02, 0x86, 0x10, 0x31, 0x06, 0x01, 0x00, 0x00, 0x02, 0x86, 0x10,
   0x31, 0x06, 0x01, 0x00, 0x00, 0x02, 0x86, 0x10, 0x21, 0x06, 0x01, 0x00,
   0x00, 0x02, 0xc6, 0x10, 0x21, 0x06, 0x01, 0x00, 0x00, 0x02, 0x46, 0x10,
   0x61, 0x04, 0x01, 0x00, 0x00, 0x02, 0x66, 0x10, 0x41, 0x04, 0x01, 0x00,
   0x00, 0x02, 0x66, 0x10, 0x41, 0x04, 0x01, 0x00, 0x00, 0x02, 0x26, 0x10,
   0x41, 0x04, 0x01, 0x00, 0x00, 0x02, 0x22, 0xa0, 0xc0, 0x04, 0x01, 0x00,
   0x00, 0x02, 0x22, 0xa0, 0x80, 0x04, 0x01, 0x00, 0x00, 0x02, 0x32, 0xa0,
   0x80, 0x04, 0x01, 0x00, 0x00, 0x02, 0x12, 0xa0, 0x80, 0x04, 0x01, 0x00,
   0x00, 0x02, 0x12, 0xa0, 0x80, 0x05, 0x01, 0x00, 0x00, 0x02, 0x1a, 0xa0,
   0x80, 0x05, 0x01, 0x00, 0x00, 0x02, 0x1a, 0xa0, 0x80, 0x05, 0x01, 0x00,
   0x00, 0x02, 0x0a, 0xa0, 0x00, 0x05, 0x01, 0x00, 0x00, 0x02, 0x0a, 0xa0,
   0x00, 0x05, 0x01, 0x00, 0x00, 0x02, 0x0e, 0xa0, 0x00, 0x07, 0x01, 0x00,
   0x00, 0x02, 0x0e, 0xa0, 0x00, 0x07, 0x01, 0x00, 0x00, 0x02, 0x06, 0xa0,
   0x00, 0x06, 0x01, 0x00, 0x00, 0x02, 0x02, 0xa0, 0x00, 0x06, 0x01, 0x00,
   0x00, 0x02, 0x02, 0x40, 0x00, 0x04, 0x01, 0x00, 0x00, 0x02, 0x02, 0x40,
   0x00, 0x06, 0x01, 0x00, 0x00, 0x02, 0x1c, 0x40, 0x00, 0x01, 0x01, 0x00,
   0x00, 0x02, 0xe0, 0x40, 0xf0, 0x00, 0x01, 0x00, 0x00, 0x02, 0x00, 0xff,
   0x0f, 0x00, 0x01, 0x00, 0x00, 0x02, 0x00, 0x40, 0x00, 0x00, 0x01, 0x00,
   0x00, 0x02, 0x00, 0x40, 0x00, 0x00, 0x01, 0x00, 0x00, 0xfe, 0xff, 0xff,
   0xff, 0xff, 0x01, 0x00, 0x00, 0x00, 0x00, 0x00, 0x00, 0x00, 0x00, 0x00,
   0x00, 0x00, 0x00, 0x00, 0x00, 0x00, 0x00, 0x00, 0x00, 0x00, 0x00, 0x00,
   0x00, 0x00, 0x00, 0x00, 0x00, 0x00, 0x00, 0x00, 0x00, 0x00, 0x00, 0x00,
   0x00, 0x00, 0x00, 0x00, 0x00, 0x00, 0x00, 0x00, 0x00, 0x00, 0x00, 0x00,
   0x00, 0x00, 0x00, 0x00, 0x00, 0x00, 0x00, 0x00, 0x00, 0x00, 0x00, 0x00};
